X:1
T:D minor Oliver Holden, 1803
T:Anne Steele, 1760 Imploring Divine Influences 88. 88. (L. M.)
T:St. Alban's No copyright. Treble-Tenor-Bass from The Charlestown Collection , 1803 Counter by B. C. Johnston, 2015.
%%score [ 1 2 3 4 ]
L:1/8
M:4/4
K:F
V:1 treble nm="Treble" snm="Tr."
V:2 treble nm="Counter" snm="C."
V:3 treble-8 nm="Tenor" snm="T."
V:4 bass nm="Bass" snm="B."
V:1
 D4 | A2 A2 A2 c2 | G2 G2 G2 B2 | A2 F2 A2 d2 | d4 ^c4 | d6 F2 | A2 A2 A2 c2 | G2 G2 G2 B2 | %8
w: 1.~My|God, when- e'er my|long- ing heart Its|grate- ful tri- bute|would im-|part, In|vain my tongue, with|fee- ble aim, At-|
 A2 F2 G2 A2 | F4 E4 | %10
w: tempts the glo- ries|of Thy|
 D6"^In         vain       my        boldest     thoughts    arise,          I        sink   to  earth  and" z2 | %11
w: name.|
 z8 | z8 | z8 |"^lose      the          skies:" z8 | z4 z2 F2 | A2 c2 c2 f2 | c2 A2 d2 d2 | %18
w: ||||Yet|may I still Thy|grace im- plore, And|
 A2 F2 A2 d2 | d4 ^c4 | d8 |] %21
w: low in dust Thy|name a-|dore.|
V:2
 B4 | A2 F2 A2 A2 | E2 F2 G2 E2 | A2 F2 A2 F2 | D4 ^C4 | %5
w: 2.~O|let Thy grace my|heart in- spire, And|raise each lan- guid,|weak de-|
 D6"^Thy    grace,  which  con  –   de  –" z2 | z8 | %7
w: sire;||
"^–scends  to  meet    The             sin  –  ner  prostrate    at      Thy      feet;" z8 | z8 | %9
w: ||
 z8 | z4 z2 F2 | E2 E2 D2 D2 | F2 A2 F2 D2 | D2 D2 E2 F2 | F4 A4 | F6 A2 | A2 A2 F2 B2 | %17
w: |With|hum- ble fear, let|love u- nite And|mix de- vo- tion|with de-|light; Then|shall Thy name be|
 A2 E2 D2 D2 | F2 A2 A2 D2 | D4 E4 | F8 |] %21
w: all my joy, Thy|praise, my con- stant|blest em-|ploy.|
V:3
 B4 | F2 F2 A2 F2 | E2 E2 E2 G2 | F2 A2 c2 B2 | A4 A4 | A6 A2 | d2 d2 d2 f2 | e2 e2 e2 g2 | %8
w: 3.~Thy|name in- spires the|harps a- bove With|har- mo- ny, and|praise, and|love; That|grace, which tunes th'~im-|mor- tal strings, Looks|
 f2 d2 c2 d2 | d4 ^c4 | d6 F2 | G2 G2 A2 A2 | c2 c2 f2 A2 | B2 A2 G2 A2 | F4 E4 | D6 d2 | %16
w: kind- ly down on|mor- tal|things. O|let Thy grace guide|eve- ry song, And|fill my heart and|tune my|tongue; Then|
 d2 A2 F2 d2 | f2 e2 d2 A2 | d2 d2 d2 A2 | A4 A4 | A8 |] %21
w: shall the strain har-|mon- ious flow, And|heav'n's sweet work be-|gin be-|low.|
V:4
 D,4 | D,2 D,2 D,2 A,,2 | C,2 C,2 C,2 C,2 | F,2 F,2 F,2 D,2 | A,4 A,,4 | D,6 D,2 | %6
 D,2 D,2 D,2 A,,2 | C,2 C,2 C,2 C,2 | F,2 F,2 E,2 D,2 | A,,4 A,,4 | D,6 D,2 | E,2 E,2 D,2 D,2 | %12
 C,2 C,2 A,,2 D,2 | G,2 F,2 E,2 D,2 | A,,4 A,,4 | D,6 D,2 | D,2 A,2 A,2 B,2 | A,2 A,,2 D,2 D,2 | %18
 D,2 D,2 D,2 D,2 | A,4 A,,4 | D,8 |] %21

